X:1
T:Halling
R:Halling
Z:Anton Teljebäck
M:2/4
L:1/8
K:Dm
| A,C D>E | FF/D/ EE/C/ | A,A,/C/ DD/E/ | FF/D/ EE/C/ | D2 D2 :|
|:E/ | FF/D/ F/A/F/D/ | EE/D/ ED/E/ | FF/D/ F/A/F/D/ | EE/D/ ED/E/ | (3FDF (3EDC | D2 D2 :|
|: ^f>e d/e/f/^g/ | a^g/e/ g^f | ^f>e d/e/f/^g/ | a^g/e/ ^f2 | ^f>e d/e/f/^g/ | a^g/e/ g^f |A,C D>E | FF/D/ EE/C/ | D2 D2 :|

